**kern	**kern	**kern	**kern
*staff3	*staff4	*staff1	*staff2
*clefF4	*clefF4	*clefG2	*clefG2
*k[f#c#]	*k[f#c#]	*k[f#c#]	*k[f#c#]
*M2/4	*M2/4	*M2/4	*M2/4
*D:	*D:	*D:	*D:
=-	=-	=-	=-
2.r	([4.AAA [4.AA	8AL] 8a]	2.r
.	.	8G) 8g	.
.	.	8E'J 8e'	.
.	8AAAL] 8AA]	([4.g [4.gg	.
.	8DD) 8D	.	.
.	8CC#'J 8C#'	.	.
=348	=348	=348	=348
2.r	([4.DD [4.D	8gL] 8gg]	2.r
.	.	8f#) 8ff#	.
.	.	8d'J 8dd'	.
.	8DDL] 8D]	([4.dd [4.ddd	.
.	8GG) 8G	.	.
.	8FF#'J 8F#'	.	.
=349	=349	=349	=349
2.r	([4.GG [4.G	8ddL] 8ddd]	2.r
.	.	8dd#) 8ddd#	.
.	.	8ee'J 8eee'	.
.	8GGL] 8G]	([4.a [4.aa	.
.	8EE) 8E	.	.
.	8EE#'J 8E#'	.	.
=350	=350	=350	=350
2.r	8FF#' 8F#'	8aL] 8aa]	2.r
.	8r	8f#) 8ff#	.
.	8CC# 8C#	8e'J 8ee'	.
.	8DD 8D	(8dL 8dd	.
.	8r	8c# 8cc#	.
.	8GGG# 8GG#	8BJ) 8b	.
=351	=351	=351	=351
2.r	(8AAAL 8AA	([4.A [4.a	2.r
.	8GG)	.	.
.	8EE'J	.	.
.	([4.GG [4.G	8AL] 8a]	.
.	.	8d) 8dd	.
.	.	8c#'J 8cc#'	.
=352	=352	=352	=352
2.r	8GGL] 8G]	([4.d [4.dd	2.r
.	8FF#) 8F#	.	.
.	8DD'J 8D'	.	.
.	([4.D [4.d	8dL] 8dd]	.
.	.	8g) 8gg	.
.	.	8f#'J 8ff#'	.
=353	=353	=353	=353
2.r	8DL] 8d]	([4.g [4.gg	2.r
.	8D# 8d#	.	.
.	8E'J) 8e'	.	.
.	[4.AA [4.A	8gL] 8gg]	.
.	.	8g#) 8gg#	.
.	.	8a'J 8aa'	.
=354	=354	=354	=354
2.r	8AAL] 8A]	4d 4dd	2.r
.	8FF#' 8F#'	.	.
.	8EE'J 8E'	4r	.
.	4DD' 4D'	.	.
.	.	8r	.
.	8r	8r	.
=355:|!	=355:|!	=355:|!	=355:|!
*-	*-	*-	*-
